hero/solid/arrow-right.svg

<svg width="24" height="24" viewBox="0 0 24 24" fill="none" xmlns="http://www.w3.org/2000/svg">
<path fill-rule="evenodd" clip-rule="evenodd" d="M12.9697 3.96967C13.2626 3.67678 13.7374 3.67678 14.0303 3.96967L21.5303 11.4697C21.671 11.6103 21.75 11.8011 21.75 12C21.75 12.1989 21.671 12.3897 21.5303 12.5303L14.0303 20.0303C13.7374 20.3232 13.2626 20.3232 12.9697 20.0303C12.6768 19.7374 12.6768 19.2626 12.9697 18.9697L19.1893 12.75H3C2.58579 12.75 2.25 12.4142 2.25 12C2.25 11.5858 2.58579 11.25 3 11.25H19.1893L12.9697 5.03033C12.6768 4.73744 12.6768 4.26256 12.9697 3.96967Z" fill="#0F172A"/>
</svg>

<svg viewBox="0 0 24 24" xmlns="http://www.w3.org/2000/svg"><path fill-rule="evenodd" d="M12.97 3.97l-.001 0c.29-.3.76-.3 1.06-.001l7.5 7.5v0c.29.29.29.76 0 1.06l-7.5 7.5v0c-.29.3-.76.31-1.06.03 -.31-.29-.32-.76-.04-1.06 .01-.02.02-.03.03-.04l6.22-6.22H2.98v0c-.42 0-.75-.34-.75-.75 0-.42.33-.75.75-.75h16.19l-6.22-6.22 0 0c-.3-.3-.3-.77-.001-1.06Z"/></svg>
